X: 2115
T: Miss McLeod's
B: nick
B: to learn
M:4/4
R: reel
Q: 1/4=100
K:Gmajor
V:1 
|:"G"G2 BG dGBG|B2 BA BcBA|G2 BG dGBG|"D"A2 AG AcBA|
 "G"G2 BG dGBG|B2 BA Bc d2|"C"efed Bdef|"D7"gedB AcBA:|
 |:"G"G2 gf edeg|B2 BA BcBA|G2 gf edeg|"D"a2 ab agef|
 "G"g2 gf edeg|B2BA Bcdf|"C"edcB cdef|"D7"gedB AcBA:|
% abcbook-tune_id 634561e9a197335f4ae45305
% abcbook-link-0 https://www.youtube.com/watch?v=tYQWCu-M9o0
% abcbook-link-title-0 The Fitzgeralds play &#39;Miss McLeod&#39;s&#39; reel

% abcbook-boost 0
% abcbook-tablature 
% abcbook-transpose 
% abcbook-lastupdated 1666789537032
% abcbook-soundfonts 
% abcbook-repeats 3


